icons/glyphs/glyph-pacman.svg

<?xml version="1.0" encoding="UTF-8" standalone="no"?><svg height="16" viewBox="0 0 4.2333332 4.2333332" width="16" xmlns="http://www.w3.org/2000/svg"><sodipodi:namedview/><metadata><rdf:RDF><cc:Work><dc:format>image/svg+xml</dc:format><dc:type/><dc:title/></cc:Work></rdf:RDF></metadata><path d="m2.1531906.00044206a2.1165361 2.1165361 0 0 0 -.6268458.08323969 2.1165361 2.1165361 0 0 0 -1.5263438 2.03087825 2.1165361 2.1165361 0 0 0 1.5220969 2.0334263 2.1165361 2.1165361 0 0 0 2.3782765-.8918535l-1.7837074-1.1398741 1.7862554-1.13647634a2.1165361 2.1165361 0 0 0 -1.7497318-.9793403zm1.6520527 1.68772694a.42781371.42781371 0 0 0 -.4272404.4280897.42781371.42781371 0 0 0  .4272404.4280898.42781371.42781371 0 0 0  .4280898-.4280898.42781371.42781371 0 0 0 -.4280898-.4280897z" fill="#d0d0d0" stroke-linecap="round" stroke-miterlimit="26.700001" stroke-width=".396875"/></svg>

<?xml version="1.0" encoding="UTF-8" standalone="no"?>
<!-- Created with Inkscape (http://www.inkscape.org/) -->

<svg
   xmlns:dc="http://purl.org/dc/elements/1.1/"
   xmlns:cc="http://creativecommons.org/ns#"
   xmlns:rdf="http://www.w3.org/1999/02/22-rdf-syntax-ns#"
   xmlns:svg="http://www.w3.org/2000/svg"
   xmlns="http://www.w3.org/2000/svg"
   xmlns:sodipodi="http://sodipodi.sourceforge.net/DTD/sodipodi-0.dtd"
   xmlns:inkscape="http://www.inkscape.org/namespaces/inkscape"
   width="16"
   height="16"
   viewBox="0 0 4.2333332 4.2333332"
   version="1.1"
   id="svg8"
   inkscape:version="0.92+devel (b8837397f6, 2017-07-27, custom)"
   sodipodi:docname="glyph-pacman.svg">
  <defs
     id="defs2" />
  <sodipodi:namedview
     id="base"
     pagecolor="#002466"
     bordercolor="#ffffff"
     borderopacity="0.38039216"
     inkscape:pageopacity="1"
     inkscape:pageshadow="2"
     inkscape:zoom="36.415999"
     inkscape:cx="10.094581"
     inkscape:cy="7.9162778"
     inkscape:document-units="px"
     inkscape:current-layer="svg8"
     inkscape:document-rotation="0"
     showgrid="false"
     inkscape:showpageshadow="false"
     borderlayer="true"
     inkscape:window-width="1920"
     inkscape:window-height="1051"
     inkscape:window-x="0"
     inkscape:window-y="0"
     inkscape:window-maximized="1"
     units="px" />
  <metadata
     id="metadata5">
    <rdf:RDF>
      <cc:Work
         rdf:about="">
        <dc:format>image/svg+xml</dc:format>
        <dc:type
           rdf:resource="http://purl.org/dc/dcmitype/StillImage" />
        <dc:title></dc:title>
      </cc:Work>
    </rdf:RDF>
  </metadata>
  <path
     style="font-variation-settings:normal;vector-effect:none;fill:#d0d0d0;stroke-width:0.39687499;stroke-linecap:round;stroke-miterlimit:26.70000076"
     d="M 2.1531906,4.4205982e-4 A 2.1165361,2.1165361 0 0 0 1.5263448,0.08368175 2.1165361,2.1165361 0 0 0 1.0013835e-6,2.11456 2.1165361,2.1165361 0 0 0 1.5220979,4.1479863 2.1165361,2.1165361 0 0 0 3.9003744,3.2561328 L 2.116667,2.1162587 3.9029224,0.97978236 A 2.1165361,2.1165361 0 0 0 2.1531906,4.4205982e-4 Z M 3.8052433,1.688169 A 0.42781371,0.42781371 0 0 0 3.3780029,2.1162587 0.42781371,0.42781371 0 0 0 3.8052433,2.5443485 0.42781371,0.42781371 0 0 0 4.2333331,2.1162587 0.42781371,0.42781371 0 0 0 3.8052433,1.688169 Z"
     id="path811"
     inkscape:connector-curvature="0" />
</svg>
